!!!SOCIAL_FUNCTION:	songs of the horse society (dream societies)
!!!PDT:	1918

Specific Region: Dakotas, Minnesota, Montana, Nebraska
!!!REG: Dakotas and Montana
!!!LING_GROUP: Siouan
!!!LANG: Tone
!!!OTL@ENG: A Root of Herb
!!!ONM: No. 113
**kern
*Imale
*clefF4
*k[b-e-a-]
*M2/4
*MM138
16e-
8.e-
=1
8.e-
16e-
4e-
=2||
*M3/4
4d
4d
4d
=3||
*M2/4
16c
8.c
[4c
=4
4c]
16e-
8.e-
=5
8.e-
16e-
4e-
=6||
*M3/4
4d
4d
4d
=7
16c
8.c
4c
16c
8.c
=8||
*M2/4
8.c
16c
4c
=9||
*M3/4
8.c
16G
4G
16d
16d
8d
=
([2.c
8c]
8G)
=10||
*M2/4
4G
16G
8.G
=11
16G
8.G
(4G
=12
4G)
16G
8.G
=13
8.G
16G
4c
=14||
*M3/4
4c
2c
=15||
*M2/4
4c
4c
=16
16c
8.c
[4c
=17
4c]
16c
8.c
=18
8.c
16c
4c
=19||
*M3/4
8.c
16G
4G
12d
12d
12d
=20
([2c
8c]
8G)
=21||
*M2/4
4G
16G
8.G
=22
16G
8.G
[4G
=23
4G]
16E-
8.E-
=24
8.E-
16E-
4E-
=25||
*M3/4
4D
4D
4D
=26
16C
8.C
2C
==
*-
!!!CNT: Native American -- Sioux
!!!MRD: 1911/07//-1914///
!!!OCL: Frances Densmore
!!!YOR1: Teton Sioux Music, Bulletin 61,
!!!YOR2: Bureau of American Ethnology, Smithsonian Institution
!!!PPR: Government Printing Office
!!!PPP: Washington, D.C.
!!!PDT: 1918///
!!!ENC: Craig Stuart Sapp
!!!END: 2002/03/25/
!!!EEV: 2002/03/31/
!!!AGN: Society Song/Song of the Horse Society
!!!MPN@@SIO: Shiya'ka
!!!MPN@ENG: Teal Duck
!!!TXO: Teton Sioux
!!!MLC: Standing Rock Reservation, South Dakota, United States of America
!!!ARL: 45.9/-100.7#
!!!catalog: Catalogue No. 467
!!!PPG: 304
!!!EFL: 113/245
!!!VTS: 2646635708
